X:1
T: Lady McNeil
C:William Marshall
R:Reel
Q: 232
K:Bb
M:4/4
L:1/8
|:B2 FD GE BG|FD GE ED CB,|ed ef gf ed|cB AG FG AF|
B2 FD GE BG|FD GE ED CB,|d2 b2 ag fe|dc BA B4|
ed ef gf ed|cB cd ed cB|AF GA Bc de|gf ed c4|
B2 FD GE BG|FD GE ED CB,|d2 b2 ag fe|dc BA B4:|
